src/svgs/document.svg

<?xml version="1.0" encoding="UTF-8" standalone="no"?>
<!-- Created with Inkscape (http://www.inkscape.org/) -->

<svg
   xmlns:dc="http://purl.org/dc/elements/1.1/"
   xmlns:cc="http://creativecommons.org/ns#"
   xmlns:rdf="http://www.w3.org/1999/02/22-rdf-syntax-ns#"
   xmlns:svg="http://www.w3.org/2000/svg"
   xmlns="http://www.w3.org/2000/svg"
   xmlns:sodipodi="http://sodipodi.sourceforge.net/DTD/sodipodi-0.dtd"
   xmlns:inkscape="http://www.inkscape.org/namespaces/inkscape"
   width="20"
   height="20"
   id="svg5738"
   version="1.1"
   inkscape:version="0.48.5 r10040"
   sodipodi:docname="document.svg">
  <defs
     id="defs5740" />
  <sodipodi:namedview
     id="base"
     pagecolor="#ffffff"
     bordercolor="#666666"
     borderopacity="1.0"
     inkscape:pageopacity="0.0"
     inkscape:pageshadow="2"
     inkscape:zoom="1"
     inkscape:cx="10.707374"
     inkscape:cy="11.647486"
     inkscape:document-units="px"
     inkscape:current-layer="layer1"
     showgrid="false"
     inkscape:window-width="1033"
     inkscape:window-height="844"
     inkscape:window-x="20"
     inkscape:window-y="20"
     inkscape:window-maximized="0">
    <inkscape:grid
       type="xygrid"
       id="grid5746"
       empspacing="5"
       visible="true"
       enabled="true"
       snapvisiblegridlinesonly="true" />
  </sodipodi:namedview>
  <metadata
     id="metadata5743">
    <rdf:RDF>
      <cc:Work
         rdf:about="">
        <dc:format>image/svg+xml</dc:format>
        <dc:type
           rdf:resource="http://purl.org/dc/dcmitype/StillImage" />
        <dc:title />
      </cc:Work>
    </rdf:RDF>
  </metadata>
  <g
     inkscape:label="Layer 1"
     inkscape:groupmode="layer"
     id="layer1"
     transform="translate(0,-1032.3622)">
    <path
       style="color:#000000;fill:#000000;fill-opacity:1;fill-rule:nonzero;stroke:none;stroke-width:1;marker:none;visibility:visible;display:inline;overflow:visible;enable-background:accumulate"
       d="M 7 5 C 6 5 6 6 6 6 L 6 14 C 6 15 7 15 7 15 L 13 15 C 14 15 14 14 14 14 L 14 9 C 14 8 13.527023 7.527 13 7 L 12 6 C 11.472954 5.473 11 5 10 5 L 7 5 z M 10.25 6.5625 C 10.396487 6.5332002 10.625037 6.6249625 11 7 L 12 8 C 12.375 8.3749 12.4668 8.6035 12.4375 8.75 C 12.3885 8.9941 12 9 12 9 L 10 9 L 10 7 C 10 7 10.005855 6.611333 10.25 6.5625 z "
       transform="translate(0,1032.3622)"
       id="path5028" />
  </g>
</svg>

<?xml version="1.0" encoding="UTF-8" standalone="yes"?>
<svg viewBox="0 0 20 20">
  <path d="M7,5C6,5,6,6,6,6v8c0,1,1,1,1,1h6c1,0,1-1,1-1V9c0-1-0.5-1.5-1-2l-1-1c-0.5-0.5-1-1-2-1H7z M10.2,6.6c0.1,0,0.4,0.1,0.8,0.4
	l1,1c0.4,0.4,0.5,0.6,0.4,0.8C12.4,9,12,9,12,9h-2V7C10,7,10,6.6,10.2,6.6z"/>
</svg>
